X: 1
T: Jimmy O' the Bu's Polka
C: J.Sinclair-Hoy (composed early 1900's)
R: polka
Z: 2021 John Chambers <jc:trillian.mit.edu>
S: handout for online BSFC workshop by Douglas Montgomery 2021-2-22
M: 2/4
L: 1/16
K: D
B |\
A2A2 AFAd | c2B2 B2(ed) | c2c2 cABc |[1,3 dcde fed :|[2,4 d2f2 d3 :|
B |:\
A2f2 fedc | B2g2 g3 [1 f | e2a2 ^g2a2 | b2a2 ^g2a2 :|[2 b | a2f2 g2e2 | d4 d3 |]
